public/svgs/light/text-height.svg

<svg xmlns="http://www.w3.org/2000/svg" viewBox="0 0 576 512"><!-- Font Awesome Pro 6.0.0-alpha2 by @fontawesome - https://fontawesome.com License - https://fontawesome.com/license (Commercial License) --><path d="M304 32H16C7.156 32 0 39.156 0 48V144C0 152.844 7.156 160 16 160S32 152.844 32 144V64H144V448H80C71.156 448 64 455.156 64 464S71.156 480 80 480H240C248.844 480 256 472.844 256 464S248.844 448 240 448H176V64H288V144C288 152.844 295.156 160 304 160S320 152.844 320 144V48C320 39.156 312.844 32 304 32ZM548.688 372.688L496 425.375V86.625L548.688 139.312C551.812 142.438 555.906 144 560 144S568.188 142.438 571.312 139.312C577.562 133.062 577.562 122.937 571.312 116.688L491.312 36.688C485.062 30.438 474.937 30.438 468.688 36.688L388.688 116.688C382.438 122.938 382.438 133.063 388.688 139.312S405.063 145.562 411.312 139.312L464 86.625V425.375L411.312 372.687C405.062 366.437 394.937 366.437 388.688 372.687S382.438 389.062 388.688 395.312L468.688 475.312C471.812 478.438 475.906 480 480 480S488.188 478.438 491.312 475.312L571.312 395.312C577.562 389.062 577.562 378.937 571.312 372.688S554.938 366.438 548.688 372.688Z"/></svg>

<svg xmlns="http://www.w3.org/2000/svg" viewBox="0 0 576 512"><!--! Font Awesome Pro 6.5.1 by @fontawesome - https://fontawesome.com License - https://fontawesome.com/license (Commercial License) Copyright 2023 Fonticons, Inc. --><path d="M491.3 36.7c-6.2-6.2-16.4-6.2-22.6 0l-80 80c-6.2 6.2-6.2 16.4 0 22.6s16.4 6.2 22.6 0L464 86.6V425.4l-52.7-52.7c-6.2-6.2-16.4-6.2-22.6 0s-6.2 16.4 0 22.6l80 80c6.2 6.2 16.4 6.2 22.6 0l80-80c6.2-6.2 6.2-16.4 0-22.6s-16.4-6.2-22.6 0L496 425.4V86.6l52.7 52.7c6.2 6.2 16.4 6.2 22.6 0s6.2-16.4 0-22.6l-80-80zM32 32C14.3 32 0 46.3 0 64v64c0 8.8 7.2 16 16 16s16-7.2 16-16V64H144l0 384H80c-8.8 0-16 7.2-16 16s7.2 16 16 16H240c8.8 0 16-7.2 16-16s-7.2-16-16-16H176l0-384H288v64c0 8.8 7.2 16 16 16s16-7.2 16-16V64c0-17.7-14.3-32-32-32H32z"/></svg>
